images_sukapura_svg/cmd/sc_bezierinsert.svg

<svg viewBox="0 0 16 16" xmlns="http://www.w3.org/2000/svg" xmlns:xlink="http://www.w3.org/1999/xlink"><linearGradient id="a" gradientTransform="matrix(.70710678 .70710678 -.70710678 .70710678 7.699328 -4.324642)" gradientUnits="userSpaceOnUse" x1="7" x2="8" y1="8" y2="8"><stop offset="0" stop-color="#0040dd"/><stop offset="1" stop-color="#0a84ff"/></linearGradient><linearGradient id="b" gradientTransform="matrix(.26458333 0 0 .26458333 101.6 307.58333)" gradientUnits="userSpaceOnUse" x1="18.5" x2="18.5" y1="23" y2="14.5"><stop offset="0" stop-color="#d70015"/><stop offset="1" stop-color="#ff453a"/></linearGradient><linearGradient id="c" gradientTransform="translate(1 -1)" gradientUnits="userSpaceOnUse" x1="1.355932" x2="1.644068" xlink:href="#b" y1="15.720339" y2="13.076271"/><linearGradient id="d" gradientTransform="translate(-1 -1)" gradientUnits="userSpaceOnUse" x1="14.559322" x2="14.576271" xlink:href="#b" y1="4.720339" y2="2.144068"/><linearGradient id="e" gradientTransform="translate(2 2)" gradientUnits="userSpaceOnUse" x1="5.169491" x2="5.101695" xlink:href="#b" y1="6.559322" y2="3.169492"/><path d="m12.648438.625-4.3750005 4.375h.7265625v.6875l4.355469-4.3554688zm-7.648438 7.6503906-4.72460938 4.7246094.70703126.707031 4.70703122-4.707031h-.6894531z" fill="url(#a)"/><g fill="#808080" transform="translate(-1 -1)"><path d="m1 12h3v3h-3z" fill="url(#c)"/><path d="m12 1h3v3h-3z" fill="url(#d)"/></g><path d="m5 5v4h4v-4zm1 1h2v2h-2z" fill="url(#e)"/><path d="m11 6c-.554 0-1 .446-1 1v3h-3c-.554 0-1 .446-1 1s.446 1 1 1h3v3c0 .554.446 1 1 1s1-.446 1-1v-3h3c.554 0 1-.446 1-1s-.446-1-1-1h-3v-3c0-.554-.446-1-1-1z" fill="#32d74b"/></svg>

<?xml version="1.0" encoding="UTF-8" standalone="no"?>
<svg
   xmlns:dc="http://purl.org/dc/elements/1.1/"
   xmlns:cc="http://creativecommons.org/ns#"
   xmlns:rdf="http://www.w3.org/1999/02/22-rdf-syntax-ns#"
   xmlns:svg="http://www.w3.org/2000/svg"
   xmlns="http://www.w3.org/2000/svg"
   xmlns:xlink="http://www.w3.org/1999/xlink"
   xmlns:sodipodi="http://sodipodi.sourceforge.net/DTD/sodipodi-0.dtd"
   xmlns:inkscape="http://www.inkscape.org/namespaces/inkscape"
   viewBox="0 0 16 16"
   version="1.1"
   id="svg27"
   sodipodi:docname="sc_bezierinsert.svg"
   inkscape:version="0.92.3 (unknown)">
  <metadata
     id="metadata33">
    <rdf:RDF>
      <cc:Work
         rdf:about="">
        <dc:format>image/svg+xml</dc:format>
        <dc:type
           rdf:resource="http://purl.org/dc/dcmitype/StillImage" />
        <dc:title></dc:title>
      </cc:Work>
    </rdf:RDF>
  </metadata>
  <defs
     id="defs31">
    <linearGradient
       inkscape:collect="always"
       xlink:href="#d"
       id="linearGradient958"
       x1="7"
       y1="8"
       x2="8"
       y2="8"
       gradientUnits="userSpaceOnUse"
       gradientTransform="rotate(45,9.0699683,7.1315899)" />
  </defs>
  <sodipodi:namedview
     pagecolor="#ffffff"
     bordercolor="#666666"
     borderopacity="1"
     objecttolerance="10"
     gridtolerance="10"
     guidetolerance="10"
     inkscape:pageopacity="0"
     inkscape:pageshadow="2"
     inkscape:window-width="1366"
     inkscape:window-height="706"
     id="namedview29"
     showgrid="false"
     inkscape:snap-global="false"
     inkscape:zoom="20.85965"
     inkscape:cx="10.499997"
     inkscape:cy="6.9047476"
     inkscape:window-x="0"
     inkscape:window-y="0"
     inkscape:window-maximized="1"
     inkscape:current-layer="svg27">
    <inkscape:grid
       type="xygrid"
       id="grid948" />
  </sodipodi:namedview>
  <linearGradient
     id="a"
     gradientTransform="matrix(.26458333 0 0 .26458333 101.6 307.58333)"
     gradientUnits="userSpaceOnUse"
     x1="18.5"
     x2="18.5"
     y1="23"
     y2="14.5">
    <stop
       offset="0"
       stop-color="#d70015"
       id="stop2" />
    <stop
       offset="1"
       stop-color="#ff453a"
       id="stop4" />
  </linearGradient>
  <linearGradient
     id="b"
     gradientUnits="userSpaceOnUse"
     x1="1.355932"
     x2="1.644068"
     xlink:href="#a"
     y1="15.720339"
     y2="13.076271"
     gradientTransform="translate(1,-1)" />
  <linearGradient
     id="c"
     gradientUnits="userSpaceOnUse"
     x1="14.559322"
     x2="14.576271"
     xlink:href="#a"
     y1="4.720339"
     y2="2.144068"
     gradientTransform="translate(-1,-0.99999987)" />
  <linearGradient
     id="d"
     gradientUnits="userSpaceOnUse"
     x1="-19.897808"
     x2="-19.579052"
     y1="17.182212"
     y2="1.995771">
    <stop
       offset="0"
       stop-color="#0040dd"
       id="stop9" />
    <stop
       offset="1"
       stop-color="#0a84ff"
       id="stop11" />
  </linearGradient>
  <linearGradient
     id="e"
     gradientUnits="userSpaceOnUse"
     x1="5.169491"
     x2="5.101695"
     xlink:href="#a"
     y1="6.559322"
     y2="3.169492"
     gradientTransform="translate(2,2)" />
  <path
     style="opacity:1;vector-effect:none;fill:url(#linearGradient958);fill-opacity:1;stroke:none;stroke-width:1;stroke-linecap:butt;stroke-linejoin:miter;stroke-miterlimit:4;stroke-dasharray:none;stroke-dashoffset:0;stroke-opacity:1"
     d="M 12.648438,0.625 8.2734375,5 H 9 V 5.6875 L 13.355469,1.3320312 Z M 5,8.2753906 0.27539062,13 0.98242188,13.707031 5.6894531,9 H 5 Z"
     id="rect950"
     inkscape:connector-curvature="0"
     sodipodi:nodetypes="ccccccccccsc" />
  <g
     id="g21"
     transform="translate(-1,-1)"
     style="fill:#808080">
    <path
       d="m 1,12 h 3 v 3 H 1 Z"
       id="path17"
       style="fill:url(#b)"
       inkscape:connector-curvature="0" />
    <path
       d="m 12,1 h 3 v 3 h -3 z"
       id="path19"
       style="fill:url(#c)"
       inkscape:connector-curvature="0" />
  </g>
  <path
     d="M 5,5 V 9 H 9 V 5 Z M 6,6 H 8 V 8 H 6 Z"
     id="path23"
     style="fill:url(#e)"
     inkscape:connector-curvature="0" />
  <path
     d="m11 6c-.554 0-1 .446-1 1v3h-3c-.554 0-1 .446-1 1s.446 1 1 1h3v3c0 .554.446 1 1 1s1-.446 1-1v-3h3c.554 0 1-.446 1-1s-.446-1-1-1h-3v-3c0-.554-.446-1-1-1z"
     fill="#32d74b"
     id="path25" />
</svg>
